priv/static/svgs/icons_new/sport-waterpolo.svg

<svg width="32" height="32" viewBox="0 0 32 32" fill="none" xmlns="http://www.w3.org/2000/svg">
<path d="M9.46716 13.9001L11.1098 15.6122C11.3261 15.856 11.5975 16.0061 11.9216 16.0406L15.0546 16.3738M19.0072 15.0364L24.5048 9.61453C24.9532 9.17287 25.6819 9.18973 26.1336 9.65352C26.5876 10.1392 26.5759 10.8915 26.1084 11.3571L21.349 16.0217C20.9978 16.3654 20.8778 16.8853 21.0098 17.3584L23.7194 25.1243M17.1096 25.103L15.5611 19.793C15.4058 19.3001 14.986 18.9437 14.4882 18.8821L11.1157 18.5061C10.8128 18.4695 10.5436 18.3413 10.3506 18.1172L7.42527 15.2542C7.09013 14.8894 7.0386 14.3643 7.20958 13.9277M7.83648 6.55034C9.29437 6.47503 10.5429 7.63475 10.6251 9.14065C10.7073 10.6465 9.59205 11.9284 8.13416 12.0037C6.67627 12.079 5.42778 10.9193 5.34558 9.41337C5.26338 7.90748 6.37859 6.62566 7.83648 6.55034ZM18.4997 11.2377C18.6603 12.8752 17.5058 14.3287 15.921 14.4843C14.3362 14.6398 12.9212 13.4384 12.7605 11.8009C12.5998 10.1634 13.7543 8.70993 15.3391 8.55441C16.9239 8.39888 18.339 9.60025 18.4997 11.2377Z" stroke="black" stroke-miterlimit="10" stroke-linecap="round" stroke-linejoin="round"/>
<path d="M29.727 24.6646C28.8123 23.8687 27.4553 23.8643 26.5456 24.6544L26.327 24.8442C25.314 25.7238 23.8095 25.7402 22.7667 24.8828L22.6409 24.7794C21.5688 23.898 20.0221 23.9148 18.9807 24.8191C17.9606 25.705 16.4516 25.7413 15.3791 24.9058L15.1698 24.7427C14.0268 23.8521 12.43 23.847 11.2925 24.7302L11.0584 24.912C9.99936 25.7342 8.5074 25.7097 7.46526 24.853L7.17152 24.6115C6.19779 23.811 4.78158 23.8706 3.88916 24.7496" stroke="black" stroke-linecap="round" stroke-linejoin="round"/>
</svg>

<svg width="32" height="32" viewBox="0 0 32 32" fill="none" xmlns="http://www.w3.org/2000/svg">
  <symbol id="item" viewBox="0 0 32 32" stroke-width="1" fill="none">
    <path d="m9.467 13.9 1.643 1.712c.216.244.488.394.812.429l3.133.333m3.952-1.338 5.498-5.421c.448-.442 1.177-.425 1.629.039a1.223 1.223 0 0 1-.026 1.703l-4.759 4.665a1.361 1.361 0 0 0-.34 1.336l2.71 7.766m-6.61-.021-1.548-5.31a1.303 1.303 0 0 0-1.073-.91l-3.372-.377a1.172 1.172 0 0 1-.765-.389l-2.926-2.863c-.335-.365-.386-.89-.215-1.326m.626-7.378c1.458-.075 2.707 1.085 2.79 2.59.081 1.506-1.034 2.788-2.492 2.864-1.458.075-2.706-1.085-2.788-2.59-.083-1.507 1.033-2.788 2.49-2.864ZM18.5 11.238c.16 1.637-.994 3.09-2.579 3.246-1.585.156-3-1.046-3.16-2.683-.161-1.638.993-3.091 2.578-3.247 1.585-.155 3 1.046 3.16 2.684Z" stroke="currentColor" stroke-miterlimit="10" stroke-linecap="round" stroke-linejoin="round"/><path d="M29.727 24.665a2.425 2.425 0 0 0-3.181-.01l-.219.19a2.758 2.758 0 0 1-3.56.038l-.126-.104a2.836 2.836 0 0 0-3.66.04 2.835 2.835 0 0 1-3.602.087l-.21-.163a3.158 3.158 0 0 0-3.877-.013l-.234.182a2.879 2.879 0 0 1-3.593-.059l-.293-.242c-.974-.8-2.39-.74-3.283.139" stroke="currentColor" stroke-linecap="round" stroke-linejoin="round"/>
  </symbol>
</svg>
